symbols/web/escalator_warning/materialsymbolsoutlined/escalator_warning_wght200_40px.svg

<svg xmlns="http://www.w3.org/2000/svg" height="40" width="40"><path d="M12.5 9.583q-1.125 0-1.938-.791Q9.75 8 9.75 6.875q0-1.167.792-1.958.791-.792 1.958-.792 1.125 0 1.938.792.812.791.812 1.958 0 1.125-.792 1.917-.791.791-1.958.791Zm15.458 9.5q-.916 0-1.541-.625-.625-.625-.625-1.541 0-.959.625-1.563t1.541-.604q.917 0 1.542.604t.625 1.563q0 .916-.625 1.541-.625.625-1.542.625ZM9.667 35.833V24.75H6.792v-9.958q0-.959.729-1.688t1.729-.729h5.292q.75 0 1.375.437.625.438.875 1.23l4.083 11.375 4.25-4.042q.25-.25.563-.354.312-.104.687-.104h3.458q.75 0 1.292.521.542.52.542 1.312v6.083h-1.792v7h-4.25V22.708l-3.542 3.459H19.5L15.458 15v20.833Z"/></svg>

<svg xmlns="http://www.w3.org/2000/svg" height="40" width="40"><path d="M12.5 9.583Q11.375 9.583 10.562 8.792Q9.75 8 9.75 6.875Q9.75 5.708 10.542 4.917Q11.333 4.125 12.5 4.125Q13.625 4.125 14.438 4.917Q15.25 5.708 15.25 6.875Q15.25 8 14.458 8.792Q13.667 9.583 12.5 9.583ZM27.958 19.083Q27.042 19.083 26.417 18.458Q25.792 17.833 25.792 16.917Q25.792 15.958 26.417 15.354Q27.042 14.75 27.958 14.75Q28.875 14.75 29.5 15.354Q30.125 15.958 30.125 16.917Q30.125 17.833 29.5 18.458Q28.875 19.083 27.958 19.083ZM9.667 35.833V24.75H6.792V14.792Q6.792 13.833 7.521 13.104Q8.25 12.375 9.25 12.375H14.542Q15.292 12.375 15.917 12.812Q16.542 13.25 16.792 14.042L20.875 25.417L25.125 21.375Q25.375 21.125 25.688 21.021Q26 20.917 26.375 20.917H29.833Q30.583 20.917 31.125 21.438Q31.667 21.958 31.667 22.75V28.833H29.875V35.833H25.625V22.708L22.083 26.167H19.5L15.458 15V35.833Z"/></svg>
